packages/core/src/svgs/tokens/branded/CRTS.svg

<svg width="24" height="24" viewBox="0 0 24 24" fill="none" xmlns="http://www.w3.org/2000/svg">
<path d="M12.5568 3.64513C10.2105 3.61972 7.94817 4.51747 6.25767 6.14479L5.89107 5.80596C7.66825 4.05951 10.0653 3.08874 12.5568 3.10631C17.0173 3.10631 20.6446 6.21701 21.4445 10.3276H20.9335C20.5233 8.41794 19.4649 6.7091 17.9381 5.49105C16.4111 4.27301 14.5098 3.6208 12.5568 3.64513ZM3.61358 6.267C3.7944 6.31397 3.96046 6.40579 4.0964 6.53395C4.23233 6.66211 4.33375 6.82249 4.39127 7.00024C4.52458 7.35574 4.44681 7.75014 4.22461 8.05009C4.04482 8.0023 3.8799 7.91012 3.745 7.78201C3.61008 7.65389 3.50952 7.49395 3.4525 7.31686C3.31363 6.93913 3.39695 6.5614 3.61358 6.267ZM2.65816 8.48893C3.01922 8.54447 3.33585 8.76667 3.5136 9.12218C3.6747 9.47772 3.65248 9.87213 3.47472 10.1721C3.29265 10.1384 3.12077 10.0633 2.97242 9.95249C2.82406 9.84167 2.70322 9.69832 2.61927 9.53319C2.44152 9.19995 2.48041 8.8 2.65816 8.48337V8.48893ZM4.38571 9.43326C4.55122 9.35149 4.73465 9.3127 4.9191 9.32046C5.10354 9.32824 5.28307 9.3823 5.44112 9.47772C5.38558 9.83325 5.16338 10.1721 4.80232 10.3276C4.44681 10.5053 4.05242 10.4664 3.75246 10.2887C3.7834 10.1071 3.85692 9.93538 3.96698 9.78762C4.07705 9.63999 4.22054 9.52036 4.38571 9.43883V9.43326ZM2.04158 11.0997C2.40264 11.0608 2.78037 11.1775 3.04145 11.4774C3.29697 11.7719 3.37473 12.1495 3.27475 12.5051C3.09125 12.5284 2.90481 12.5068 2.73156 12.442C2.55832 12.3771 2.40347 12.271 2.28043 12.1328C2.15677 11.9948 2.07002 11.8276 2.02826 11.647C1.98651 11.4664 1.99108 11.278 2.04158 11.0997ZM3.9691 11.5386C4.26906 11.2774 4.64679 11.1996 5.00229 11.2997C5.04117 11.6552 4.92452 12.0329 4.62457 12.2884C4.33016 12.5495 3.95243 12.6217 3.59137 12.5272C3.55248 12.1717 3.67469 11.794 3.9691 11.5386ZM2.34154 13.8271C2.51367 13.7576 2.70044 13.7325 2.8848 13.7539C3.06916 13.7751 3.24524 13.8424 3.39695 13.9493C3.71358 14.1659 3.86911 14.5215 3.89133 14.877C3.71974 14.9433 3.53461 14.9672 3.35179 14.9465C3.16896 14.9257 2.99389 14.861 2.84155 14.7579C2.68921 14.6546 2.56415 14.516 2.47708 14.354C2.38999 14.1918 2.34349 14.011 2.34154 13.8271ZM4.30794 13.7715C4.53014 13.4549 4.88564 13.2716 5.24115 13.2716C5.31135 13.4433 5.33745 13.6298 5.31708 13.8142C5.2967 13.9985 5.2305 14.1749 5.1245 14.327C4.9023 14.6437 4.54679 14.8214 4.19129 14.8214C4.12109 14.6498 4.09499 14.4633 4.11536 14.2788C4.13574 14.0945 4.20194 13.9182 4.30794 13.7659V13.7715ZM3.43583 16.2879C3.58933 16.185 3.76518 16.1202 3.94875 16.099C4.13232 16.0777 4.3183 16.1005 4.49125 16.1657C4.66272 16.2309 4.81537 16.3376 4.93556 16.4763C5.05575 16.6148 5.13975 16.781 5.18005 16.96C4.88564 17.1544 4.48569 17.2156 4.12463 17.0766C3.95383 17.012 3.80161 16.9061 3.68146 16.7685C3.56132 16.6309 3.47696 16.4659 3.43583 16.2879ZM5.36336 15.7879C5.50223 15.4325 5.81885 15.1769 6.15769 15.0991C6.35211 15.3936 6.41322 15.7879 6.27434 16.149C6.13548 16.5045 5.81885 16.76 5.48001 16.8378C5.37765 16.6851 5.31359 16.5098 5.29329 16.3272C5.27298 16.1445 5.29701 15.9595 5.36336 15.7879ZM4.53014 8.20008C4.57792 8.02028 4.6701 7.85536 4.79823 7.72045C4.92634 7.58555 5.08628 7.48497 5.26337 7.42796C5.43941 7.36886 5.62702 7.35266 5.81059 7.38067C5.99416 7.40869 6.16838 7.48013 6.31879 7.58905C6.27048 7.76948 6.17746 7.93481 6.04832 8.06977C5.91919 8.20473 5.75812 8.30495 5.58 8.36116C5.20227 8.50004 4.82454 8.41671 4.52458 8.20008H4.53014ZM22 11.994C21.9986 12.1409 21.9396 12.2814 21.8358 12.3852C21.7318 12.489 21.5915 12.5481 21.4445 12.5495C21.367 12.5498 21.2906 12.5306 21.2223 12.4939C21.1247 12.4514 21.0414 12.3816 20.9823 12.2929C20.9232 12.2042 20.8908 12.1006 20.8891 11.994C20.8908 11.8875 20.9232 11.7838 20.9823 11.6951C21.0414 11.6065 21.1247 11.5367 21.2223 11.4941C21.2849 11.4631 21.3531 11.4452 21.4228 11.4415C21.4926 11.4376 21.5623 11.448 21.6279 11.4718C21.7362 11.5098 21.8302 11.5803 21.8968 11.6739C21.9636 11.7673 21.9996 11.8792 22 11.994ZM21.4445 13.6604H20.9501C20.5761 15.5453 19.56 17.242 18.0752 18.4615C16.5902 19.6811 14.7284 20.3479 12.8069 20.3484C10.8071 20.3484 8.824 19.693 7.31865 18.3877L7.00202 18.7431C8.17732 19.7606 9.60079 20.4493 11.1281 20.7392C12.6553 21.0292 14.2322 20.91 15.6986 20.3939C17.1651 19.8779 18.4688 18.9832 19.478 17.8006C20.4872 16.6182 21.1656 15.1897 21.4445 13.6604ZM12.8346 18.1043C14.2879 18.105 15.6981 17.61 16.8322 16.701C17.9665 15.7922 18.7567 14.5237 19.0726 13.1049H16.7618C16.4342 14.0315 15.7896 14.8124 14.942 15.3098C14.0943 15.8069 13.0981 15.9885 12.1295 15.8224C11.1609 15.6562 10.2821 15.1529 9.64875 14.4016C9.01531 13.6502 8.66788 12.6991 8.66788 11.7163C8.66788 10.7335 9.01531 9.78244 9.64875 9.031C10.2821 8.27961 11.1609 7.77635 12.1295 7.61016C13.0981 7.44397 14.0943 7.62556 14.942 8.12282C15.7896 8.62009 16.4342 9.40101 16.7618 10.3276H19.0726C18.8109 9.1526 18.2226 8.07547 17.3754 7.22033C16.5282 6.36518 15.4565 5.76683 14.284 5.49421C13.1116 5.2216 11.886 5.28581 10.7484 5.67947C9.61078 6.07313 8.60758 6.78019 7.85437 7.71919C7.10115 8.65819 6.62859 9.79086 6.49113 10.9868C6.35366 12.1827 6.5569 13.393 7.07741 14.4784C7.59792 15.5639 8.41453 16.4802 9.43311 17.1216C10.4517 17.7632 11.6308 18.1038 12.8346 18.1043Z" fill="#3699CB"/>
</svg>

<svg xmlns="http://www.w3.org/2000/svg" width="24" height="24" fill="none" viewBox="0 0 24 24">
    <path fill="#3699CB" d="M12.557 3.645a8.94 8.94 0 0 0-6.3 2.5l-.366-.339a9.4 9.4 0 0 1 6.666-2.7c4.46 0 8.088 3.111 8.888 7.222h-.512a8.46 8.46 0 0 0-8.376-6.683M3.614 6.267A1.11 1.11 0 0 1 4.39 7c.134.356.056.75-.166 1.05a1.11 1.11 0 0 1-.772-.733 1.1 1.1 0 0 1 .16-1.05m-.956 2.222c.361.055.678.278.856.633.16.356.138.75-.04 1.05a1.2 1.2 0 0 1-.855-.639c-.177-.333-.139-.733.04-1.05zm1.728.944a1.1 1.1 0 0 1 1.055.045 1.1 1.1 0 0 1-.639.85c-.355.177-.75.138-1.05-.04a1.17 1.17 0 0 1 .634-.85zM2.042 11.1c.36-.04.738.078 1 .377.255.295.333.672.233 1.028a1.14 1.14 0 0 1-.995-.372 1.1 1.1 0 0 1-.238-1.033m1.927.439c.3-.262.678-.34 1.033-.24.04.356-.077.734-.377.99a1.1 1.1 0 0 1-1.034.238 1.14 1.14 0 0 1 .378-.988m-1.627 2.288a1.11 1.11 0 0 1 1.055.122c.317.217.472.572.494.928a1.14 1.14 0 0 1-1.55-1.05m1.966-.056c.222-.316.578-.5.933-.5a1.11 1.11 0 0 1-.116 1.056 1.15 1.15 0 0 1-.934.494 1.11 1.11 0 0 1 .117-1.055zm-.872 2.517a1.16 1.16 0 0 1 1.055-.122 1.11 1.11 0 0 1 .689.794 1.17 1.17 0 0 1-1.055.117 1.11 1.11 0 0 1-.69-.79m1.927-.5c.14-.356.456-.611.795-.689.194.295.255.689.116 1.05a1.15 1.15 0 0 1-.794.689 1.14 1.14 0 0 1-.117-1.05M4.53 8.2a1.11 1.11 0 0 1 .733-.772 1.17 1.17 0 0 1 1.056.161 1.11 1.11 0 0 1-.739.772 1.11 1.11 0 0 1-1.055-.16zM22 11.994a.56.56 0 0 1-.555.556.5.5 0 0 1-.223-.056.55.55 0 0 1-.333-.5.56.56 0 0 1 .333-.5.5.5 0 0 1 .406-.022.56.56 0 0 1 .372.522m-.555 1.666h-.495a8.304 8.304 0 0 1-8.143 6.688c-2 0-3.983-.655-5.488-1.96l-.317.355a8.816 8.816 0 0 0 14.443-5.083m-8.61 4.444a6.39 6.39 0 0 0 6.238-5h-2.311a4.167 4.167 0 1 1 0-2.776h2.31a6.388 6.388 0 1 0-6.237 7.776"/>
</svg>
